dist/assets/images/index/list-10.svg

<svg width="53" height="53" viewBox="0 0 53 53" fill="none" xmlns="http://www.w3.org/2000/svg">
<circle cx="26.5" cy="26.5" r="26.5" fill="white"/>
<path d="M28.7975 30.9644L28.1797 30.2584C31.0037 27.7874 29.9447 24.0808 29.327 22.4923L27.6502 25.4928L25.4439 19.8447C23.0611 22.6688 21.9139 25.2281 22.2669 27.2579C22.6199 29.1994 24.1201 29.9936 24.2084 30.0819L23.7671 30.8762C23.6789 30.8762 21.8256 29.8171 21.3844 27.4344C20.9431 24.9633 22.2669 22.051 25.1792 18.6975L25.6204 18.168L27.6502 23.463L29.2387 20.639L29.5917 21.345C29.8565 21.4333 32.9453 27.3461 28.7975 30.9644Z" fill="#DF0112" stroke="#DF0112" stroke-width="0.4"/>
<path d="M16.5306 31.5824H10V25.0518H16.5306V31.5824ZM10.8825 30.6998H15.6481V25.9343H10.8825V30.6998Z" fill="#0000FF" stroke="#0000FF" stroke-width="0.4"/>
<path d="M43.0052 31.5824H36.4746V25.0518H43.0052V31.5824ZM37.3571 30.6998H42.1227V25.9343H37.3571V30.6998Z" fill="#0000FF" stroke="#0000FF" stroke-width="0.4"/>
<path d="M16.5306 39.5247H10V32.9941H16.5306V39.5247ZM10.8825 38.6422H15.6481V33.8767H10.8825V38.6422Z" fill="#0000FF" stroke="#0000FF" stroke-width="0.4"/>
<path d="M25.3558 39.5247H18.8252V32.9941H25.3558V39.5247ZM19.7077 38.6422H24.4733V33.8767H19.7077V38.6422Z" fill="#0000FF" stroke="#0000FF" stroke-width="0.4"/>
<path d="M34.181 39.5247H27.6504V32.9941H34.181V39.5247ZM28.5329 38.6422H33.2985V33.8767H28.5329V38.6422Z" fill="#0000FF" stroke="#0000FF" stroke-width="0.4"/>
<path d="M43.0052 39.5247H36.4746V32.9941H43.0052V39.5247ZM37.3571 38.6422H42.1227V33.8767H37.3571V38.6422Z" fill="#0000FF" stroke="#0000FF" stroke-width="0.4"/>
<path d="M16.7946 23.4633H10.1758L10.264 22.9338C10.3523 22.316 10.5288 21.7865 10.617 21.257C10.7053 20.8157 10.8818 20.4627 10.97 20.1097C11.4113 18.786 12.1173 17.4622 12.9116 16.3149L13.1763 15.9619L18.3832 19.7567L18.1184 20.1097C17.5006 20.9922 17.0594 21.963 16.7946 23.1103V23.4633ZM11.1465 22.5808H16.0886C16.3534 21.61 16.7064 20.7275 17.2359 19.9332L13.3528 17.1092C12.7351 18.0799 12.2056 19.2272 11.7643 20.3745C11.6761 20.7275 11.4996 21.0805 11.4113 21.5217C11.323 21.7865 11.2348 22.1395 11.1465 22.5808Z" fill="#0000FF" stroke="#0000FF" stroke-width="0.4"/>
<path d="M19.178 18.6974L18.6485 18.1679L14.3242 14.1966L14.6772 13.8436C16.2657 12.2551 18.6485 10.8431 20.6783 10.0488L21.2078 9.87231L23.0611 16.0499L22.7081 16.2264C21.5608 16.7559 20.5018 17.4619 19.531 18.3444L19.178 18.6974ZM15.648 14.1966L19.178 17.4619C19.9723 16.6677 20.9431 16.0499 21.9138 15.6087L20.5901 11.0196C18.9133 11.7256 17.06 12.8729 15.648 14.1966Z" fill="#0000FF" stroke="#0000FF" stroke-width="0.4"/>
<path d="M34.0048 18.6974L33.6518 18.3444C32.7692 17.4619 31.7102 16.6677 30.4747 16.2264L30.21 16.0499L32.0632 9.87231L32.5045 10.0488C34.6225 10.8431 36.9171 12.2551 38.5056 13.8436L38.8586 14.1966L34.0048 18.6974ZM31.269 15.5204C32.2397 15.9617 33.2105 16.5794 34.0048 17.3737L37.5348 14.1084C36.1228 12.8729 34.3578 11.7256 32.5927 11.0196L31.269 15.5204Z" fill="#0000FF" stroke="#0000FF" stroke-width="0.4"/>
<path d="M24.1203 15.697L22.8848 9.43115L23.326 9.3429C25.4441 8.90164 27.6503 8.90164 29.7684 9.25464L30.2096 9.3429L28.9741 15.6087L28.5328 15.5205C27.2091 15.2557 25.7971 15.2557 24.4733 15.6087L24.1203 15.697ZM23.9438 10.1372L24.8263 14.7262C25.9736 14.5497 27.2091 14.4615 28.3563 14.638L29.2389 10.0489C27.4738 9.78415 25.6206 9.78415 23.9438 10.1372Z" fill="#0000FF" stroke="#0000FF" stroke-width="0.4"/>
<path d="M43.0066 23.4631H36.3877L36.2112 23.1101C35.9465 22.0511 35.5052 20.9921 34.8874 20.0213L34.7109 19.6683L39.9178 15.8735L40.1825 16.2265C41.5945 18.2563 42.4771 20.4626 42.8301 22.9336L43.0066 23.4631ZM37.0055 22.5806H41.9475C41.5945 20.6391 40.8003 18.7858 39.7413 17.1091L35.9465 19.9331C36.3877 20.7274 36.7407 21.6099 37.0055 22.5806Z" fill="#0000FF" stroke="#0000FF" stroke-width="0.4"/>
</svg>

<svg width="53" height="53" fill="none" xmlns="http://www.w3.org/2000/svg"><circle cx="26.5" cy="26.5" r="26.5" fill="#fff"/><path d="M28.797 30.964l-.617-.706c2.824-2.47 1.765-6.177 1.147-7.766l-1.677 3-2.206-5.647c-2.383 2.824-3.53 5.383-3.177 7.413.353 1.941 1.853 2.736 1.941 2.824l-.44.794c-.09 0-1.942-1.059-2.384-3.442-.44-2.47.883-5.383 3.795-8.736l.441-.53 2.03 5.295 1.589-2.824.353.706c.265.088 3.353 6.001-.794 9.62z" fill="#DF0112" stroke="#DF0112" stroke-width=".4"/><path d="M16.53 31.582H10v-6.53h6.53v6.53zm-5.648-.882h4.766v-4.766h-4.765V30.7zm32.123.882h-6.53v-6.53h6.53v6.53zm-5.648-.882h4.766v-4.766h-4.766V30.7zM16.53 39.525H10v-6.53h6.53v6.53zm-5.648-.883h4.766v-4.765h-4.765v4.765zm14.474.883h-6.53v-6.53h6.53v6.53zm-5.648-.883h4.765v-4.765h-4.765v4.765zm14.473.883h-6.53v-6.53h6.53v6.53zm-5.648-.883h4.765v-4.765h-4.765v4.765zm14.472.883h-6.53v-6.53h6.53v6.53zm-5.648-.883h4.766v-4.765h-4.766v4.765zM16.795 23.463h-6.62l.089-.53c.088-.617.265-1.146.353-1.676.088-.441.265-.794.353-1.147.441-1.324 1.147-2.648 1.942-3.795l.264-.353 5.207 3.795-.265.353a8.417 8.417 0 00-1.323 3v.353zm-5.649-.882h4.943c.264-.971.617-1.854 1.147-2.648l-3.883-2.824c-.618.97-1.147 2.118-1.589 3.265-.088.354-.264.707-.353 1.148a9.16 9.16 0 00-.264 1.059zm8.032-3.884l-.53-.53-4.324-3.97.353-.353c1.589-1.589 3.971-3 6.001-3.795l.53-.177 1.853 6.178-.353.176a12.482 12.482 0 00-3.177 2.118l-.353.353zm-3.53-4.5l3.53 3.265c.794-.794 1.765-1.412 2.736-1.853l-1.324-4.59c-1.677.707-3.53 1.854-4.942 3.178zm18.357 4.5l-.353-.353c-.883-.882-1.942-1.676-3.177-2.118l-.265-.176 1.853-6.178.441.177c2.119.794 4.413 2.206 6.002 3.795l.353.353-4.854 4.5zm-2.736-3.177c.97.442 1.942 1.06 2.736 1.854l3.53-3.266c-1.412-1.235-3.177-2.382-4.942-3.088l-1.324 4.5zm-7.149.177l-1.235-6.266.441-.088c2.118-.441 4.324-.441 6.442-.088l.442.088-1.236 6.266-.441-.088c-1.324-.265-2.736-.265-4.06.088l-.353.088zm-.176-5.56l.882 4.59c1.148-.177 2.383-.266 3.53-.089l.883-4.59c-1.765-.264-3.618-.264-5.295.09zm19.063 13.326h-6.62l-.176-.353a10.543 10.543 0 00-1.324-3.089l-.176-.353 5.207-3.794.264.353a15.325 15.325 0 012.648 6.707l.177.53zm-6.002-.882h4.942c-.353-1.942-1.147-3.795-2.206-5.472l-3.794 2.824c.44.794.794 1.677 1.058 2.648z" fill="#00F" stroke="#00F" stroke-width=".4"/></svg>
